X:1
T:Title
%%score { 1 | ( 2 3 ) }
L:1/8
M:6/8
K:C
V:1 treble nm="Grand Piano"
V:2 bass 
V:3 bass 
V:1
 z3 z2[Q:1/4=90] [Ec] | [Ec]2 [CE] [DF]G[G,DF] | [G,CE]3- [G,CE]2 [CEG] | %3
 [CFA]2 [CFA] [^FA][GB][Ac] |[M:5/8] [GB]-[GB]- [GB]3 |[M:1/8] [Ec] | %6
[M:3/4] [Ec]2 [CE][DF] [EG][DF] | [CE]4- [CE][EG] | G2 GG A[DFB] |[M:5/8] [CEc]-[CEc]- [CEc]3 | %10
[M:1/8] [CEG] |[M:3/4] [B,DG]2 [B,D][B,D] E[DF] | [G,DF]2 [G,CE] [G,CE]2 [CEG] | %13
 [B,DG]2 [B,D][B,D] E[DF] |[M:5/8] [G,DF]2 [G,CE] [G,CE]2 |[M:1/8] [CEG] |[M:3/4] A2 AA Bc | %17
 [Ec]2 [EG] [EG]2 A | G2 GG A[DFB] |[M:5/8] [CEc]-[CEc]- [CEc]3 |] %20
V:2
 z3 z2 [C,G,] | [C,G,]2 [C,G,] z EG,, | C,3- C,2 C, | F,2 F, [D,D]2 [D,D] | %4
[M:5/8] [G,D]-[G,D]- [G,D]3 |[M:1/8] [C,C] |[M:3/4] [C,G,]2 [C,G,] [G,,G,]2 [G,,G,] | %7
 [C,G,]4- [C,G,][C,C] | [G,CE]2 [G,CE][G,F]- [G,CF]G, |[M:5/8][K:bass] C,-C,- C,3 |[M:1/8] C, | %11
[M:3/4] G,2 .G,2 CG, | C,2 C, C,2 C, | G,2 .G,2 CG, |[M:5/8] C,2 C, C,2 |[M:1/8] C, | %16
[M:3/4] [F,CF]2 [F,CF] [F,CF]2 [F,A,F] | [C,G,]2 [C,C] [C,C]2[K:treble] [F,CF] | %18
 [G,CE]2 [G,CE][G,F]- [G,CF][K:bass]G, |[M:5/8] C,-C,- C,3 |] %20
V:3
 x6 | z3 .[G,,G,]3 | x6 | x6 |[M:5/8] x5 |[M:1/8] x |[M:3/4] x6 | x6 | z2 z B, z2 | %9
[M:5/8][K:bass] x5 |[M:1/8] x |[M:3/4] z2 z .G,3 | x6 | z2 z .G,3 |[M:5/8] x5 |[M:1/8] x | %16
[M:3/4] x6 | x5[K:treble] x | z2 z B, z2[K:bass] |[M:5/8] x5 |] %20

